source/images/icons/icon-editorial/ecrou.svg

<?xml version="1.0" encoding="UTF-8"?>
<svg width="80px" height="80px" viewBox="0 0 80 80" version="1.1" xmlns="http://www.w3.org/2000/svg" xmlns:xlink="http://www.w3.org/1999/xlink">
    <!-- Generator: Sketch 55.2 (78181) - https://sketchapp.com -->
    <title>Illustrative Icons/Ecrou</title>
    <desc>Created with Sketch.</desc>
    <g id="Illustrative-Icons/Ecrou" stroke="none" stroke-width="1" fill="none" fill-rule="evenodd">
        <path d="M74.5566244,39.1666667 L58.1916244,10.8333333 C57.8939106,10.317678 57.3437186,10 56.7482911,10 L24.0316243,10 C23.4361968,10 22.8860048,10.317678 22.588291,10.8333333 L6.22329099,39.1666667 C5.92556967,39.6823352 5.92556967,40.3176649 6.22329099,40.8333334 L22.5816243,69.1666667 C22.8793381,69.6823221 23.4295302,70 24.0249577,70 L56.7416244,70 C57.3370519,70 57.887244,69.6823221 58.1849577,69.1666667 L74.5566244,40.8333334 C74.8543457,40.3176649 74.8543457,39.6823352 74.5566244,39.1666667 Z M55.7866244,66.6666667 L24.993291,66.6666667 L9.598291,40 L24.993291,13.3333333 L55.7866244,13.3333333 L71.1832911,40 L55.7866244,66.6666667 Z M40.1966244,24.8783318 C34.8742177,24.8808597 29.9449548,27.6809805 27.2173579,32.2513453 C24.4897609,36.82171 24.365421,42.4894122 26.8899577,47.175 C27.3271831,47.9850177 28.3382734,48.2872255 29.148291,47.85 C29.9583087,47.4127746 30.2605165,46.4016843 29.823291,45.5916667 C27.0743939,40.5387735 28.3440602,34.2420833 32.8362759,30.6492899 C37.3284915,27.0564965 43.7502727,27.2017052 48.0755003,30.9938777 C52.4007279,34.7860502 53.3844817,41.1336945 50.41,46.0571713 C47.4355182,50.9806481 41.3589388,53.0628447 35.9899577,50.9983334 C35.1302344,50.6692637 34.1665274,51.0994435 33.8374577,51.9591667 C33.508388,52.81889 33.9385678,53.7825971 34.798291,54.1116667 C40.4626268,56.2811466 46.8752084,54.8548184 51.0858921,50.4888722 C55.2965758,46.1229261 56.4898719,39.6629214 54.1167981,34.0808194 C51.7437243,28.4987174 46.2638772,24.8756121 40.198291,24.8783318 L40.1966244,24.8783318 Z M31.5399577,51.8866667 C32.4604323,51.8866667 33.2066244,51.1404746 33.2066244,50.2200001 C33.2066244,49.2995255 32.4604323,48.5533334 31.5399577,48.5533334 C30.6194831,48.5533334 29.873291,49.2995255 29.873291,50.2200001 C29.873291,51.1404746 30.6194831,51.8866667 31.5399577,51.8866667 Z" id="Shape-color" fill="#ADB5BD"></path>
    </g>
</svg>

<svg width="80" height="80">
    <title>
        Illustrative Icons/Ecrou
    </title>
    <path d="M74.557 39.167L58.192 10.833A1.667 1.667 0 0 0 56.748 10H24.032c-.596 0-1.146.318-1.444.833L6.223 39.167a1.667 1.667 0 0 0 0 1.666l16.359 28.334c.297.515.848.833 1.443.833h32.717c.595 0 1.145-.318 1.443-.833l16.372-28.334a1.667 1.667 0 0 0 0-1.666zm-18.77 27.5H24.993L9.598 40l15.395-26.667h30.794L71.183 40 55.787 66.667zm-15.59-41.789A15.123 15.123 0 0 0 26.89 47.175a1.667 1.667 0 1 0 2.933-1.583 11.87 11.87 0 1 1 6.167 5.406 1.667 1.667 0 0 0-1.192 3.114 15.117 15.117 0 1 0 5.4-29.234h-.001zM31.54 51.887a1.667 1.667 0 1 0 0-3.334 1.667 1.667 0 0 0 0 3.334z" fill="#ADB5BD" fill-rule="evenodd"/>
</svg>
